src/pos-icons/arrow-up-bold-circle.svg

<svg height="24" viewBox="0 0 24 24" width="24" xmlns="http://www.w3.org/2000/svg"><path d="m12 22a10 10 0 0 1 -10-10 10 10 0 0 1 10-10 10 10 0 0 1 10 10 10 10 0 0 1 -10 10m0-15-5 5h3v4h4v-4h3z"/></svg>

<?xml version="1.0" encoding="UTF-8"?><!DOCTYPE svg PUBLIC "-//W3C//DTD SVG 1.1//EN" "http://www.w3.org/Graphics/SVG/1.1/DTD/svg11.dtd"><svg xmlns="http://www.w3.org/2000/svg" xmlns:xlink="http://www.w3.org/1999/xlink" version="1.1" id="mdi-arrow-up-bold-circle" width="24" height="24" viewBox="0 0 24 24"><path d="M12,22A10,10 0 0,1 2,12A10,10 0 0,1 12,2A10,10 0 0,1 22,12A10,10 0 0,1 12,22M12,7L7,12H10V16H14V12H17L12,7Z" /></svg>
